X: 507
T: Cumberland Gap
B: jims roots
M:C|
L:1/8
Q: 1/4=100
K:G
V:1 
|: gg | "G"gedB G2GA | "Em"Bde2 e2ef | "G"edBA GBAG | [1 "D"EG[GG,][GG,] "G"[G2G,] :|
"G"g2gg bgag | "D"eaaa abag | edga bgag | "G"egga g2g2 |
"G"eggg bgag | "D"eaaa abag | edga bgag | "G"egga g2 |]
V:2 "D"EG[GG,
V:GG, 
 "G"[G2G,]eg || "G"gedB G2GA | "Em"Bde2 e2ef | "G"edBA GBAG | "D"EG[G2G,] "G"[G2G,]eg |
% abcbook-tune_id 6298c24570ea3035f585003a


% abcbook-boost 0
% abcbook-tablature 
% abcbook-transpose 
% abcbook-lastupdated 1654178373911
% abcbook-soundfonts 
% abcbook-repeats 1


